src/mimetypes/symbolic/text-x-ruby-symbolic.svg

<svg width="16px" height="16px" version="1.1" viewBox="0 0 16 16" xmlns="http://www.w3.org/2000/svg">
 <path d="m4.3945 1-3.8301 4.4688v1.918l7.4355 8.3652 7.4688-8.4023v-1.9043l-3.8105-4.4453zm0.45898 1h1.6738l-1.8477 4h-3.2539zm2.7734 0h0.74609l1.8457 4h-4.4375zm1.8477 0h1.7246l3.4277 4h-3.3066zm-7.9199 5h3.0918l2.0352 5.7656zm4.1523 0h4.5859l-2.293 6.5zm5.6465 0h3.0879l-5.123 5.7637z" fill="#363636" fill-rule="evenodd" stop-color="#000000" stroke-width="1.0437"/>
</svg>

<svg xmlns="http://www.w3.org/2000/svg" width="16" height="16">
    <path fill="#050505" fill-opacity=".7" fill-rule="evenodd" d="M4.395 1 .564 5.469v1.918L8 15.752l7.469-8.402V5.445L11.659 1zm.458 1h1.674L4.68 6H1.426zm2.774 0h.746l1.846 4H5.78zm1.848 0h1.724l3.428 4H11.32zm-7.92 5h3.091l2.036 5.766zm4.152 0h4.586L8 13.5zm5.646 0h3.088l-5.123 5.764z"/>
</svg>
